X: 730
T: Leather Britches
C:Traditional
B: jims roots
M:4/4
L:1/8
Q: 1/4=100
K:G
V:1 
%1/8=448
|:"G"DEGB AGBG|DEGB AGEG|DEGB AGBG|"D"DEDB, "G"(3A,B,A, G,2|
  "G"DEGB AGBG|DEGB AGEG|"D"(3BcB AG FDEF|"G"GBAF G4:|
"G"[gB][gd][gd][gB] [g2d2]ef|gfga gedc|BddB d2ef|"D"gedB "G"AGGA|
"G"BddB d2ef|gfga gfef|gedB AGEG|[1 "D"DB,DG "G"EGGA:|
V:2 "D"DB,DG "G"EG3|
% abcbook-tune_id 6298c25d2cc30b5d8cb16710


% abcbook-boost 0
% abcbook-tablature 
% abcbook-transpose 
% abcbook-lastupdated 1654178399682
% abcbook-soundfonts 
% abcbook-repeats 1


